!!!COM: Bach, Johann Sebastian
!!!CDT: 1685/3//-1750/7/28/
!!!OTL@@DE: Ach wie fluechtig, ach wie nichtig
!!!AGN: 4-Part Chorale
!!!OPR: Cantata, BWV 26
!!!SCT: BH 048
!!!SCT: BWV 26
**harm	**root	**kern	**kern	**kern	**kern
!	!	!bass	!tenor	!alto	!soprno
*	*Iorgan	*Iorgan	*Iorgan	*Iorgan	*Iorgan
*	*	*clefF4	*clefF4	*clefG2	*clefG2
*M4/4	*M4/4	*M4/4	*M4/4	*M4/4	*M4/4
*met(c)	*met(c)	*met(c)	*met(c)	*met(c)	*met(c)
*MM60	*MM60	*MM60	*MM60	*MM60	*MM60
*k[b-e-]	*k[b-e-]	*k[b-e-]	*k[b-e-]	*k[b-e-]	*k[b-e-]
*g:	*g:	*g:	*g:	*g:	*g:
=1-	=1-	=1-	=1-	=1-	=1-
i	4AA	4G	4B-	4d	4g
Vb	4EE	4F#	4A	4d	4a
i	4AA	4G	4G	4d	4b-
i;	4AA;	4GG;	4G;	4d;	4b-;
=2	=2	=2	=2	=2	=2
i	4AA	4G	4G	4d	4b-
V/III	4GG	4F	4A	4f	4cc
I/III	4CC	4B-	4B-	4f	4dd
I/III;	4CC;	4BB-;	4B-;	4f;	4dd;
=3	=3	=3	=3	=3	=3
I/III	4CC	8B-	8B-	4f	4dd
.	.	8A	8c	.	.
i	4AA	8G	8B-	[4b-	4dd
.	.	8F	8A	.	.
V7b/-VII	8DD	8E	8G	8b-]	4cc
viio	8GG#	8F#	8A	4a	.
i	4AA	4G	8B-	.	4b-
.	.	.	8d	8g	.
=4	=4	=4	=4	=4	=4
iv7	4DD	4C	4e-	4g	4.a
V	4EE	4D	8d	4f#	.
.	.	.	8c	.	8g
I;	2AA;	2GG;	2B;	2d;	2g;
=5	=5	=5	=5	=5	=5
I	4AA	8G	8B	4g	4dd
.	.	8A	8c	.	.
Ib	4AA	8B	8d	4g	4dd
.	.	8G	8B	.	.
iv	4DD	8c	4c	4g	4ee-
.	.	8B-	.	.	.
-II	4BB-	8A-	4c	4a-	4ee-
.	.	8G	.	.	.
!!linebreak: 2
=6	=6	=6	=6	=6	=6
viiD7/VI	4EE	8F	4c	4a-	4dd
.	.	8D	.	.	.
V/IV	4AA	4G	4B	8g	4dd
.	.	.	.	8f	.
IV	4DD	4C	4c	8f	4dd
.	.	.	.	8d	.
IV;	4DD;	4C;	4G;	4e;	4cc;
*B-:	*B-:	*B-:	*B-:	*B-:	*B-:
=7	=7	=7	=7	=7	=7
V	4GG	8F	8A	4f	4cc
.	.	8G	8B-	.	.
Vb	4GG	8A	8c	4f	4cc
.	.	8F	8A	.	.
I	4CC	8B-	4B-	4f	4dd
.	.	8A	.	.	.
vi	4AA	8G	4B-	4g	4dd
.	.	8F	.	.	.
=8	=8	=8	=8	=8	=8
ii7b	4DD	8E-	4B-	4g	4cc
.	.	8C	.	.	.
V	4GG	4F	4A	8f	4cc
.	.	.	.	8e-	.
I	4CC	4BB-	4B-	8e-	4b-
.	.	.	.	8c	.
I;	4CC;	4BB-;	4F;	4d;	4b-;
*g:	*g:	*g:	*g:	*g:	*g:
=9	=9	=9	=9	=9	=9
VI	4FF	4E-	4G	4e-	4b-
iv	4DD	8D	4G	4e-	4cc
.	.	8C	.	.	.
Vb	4EE	8F#	4A	4d	4dd
.	.	8D	.	.	.
I	4AA	4G	4G	4d	8cc
.	.	.	.	.	8b-
=10	=10	=10	=10	=10	=10
V7b/V	4BB	4C#	4G	4e	4a
V	4EE	4D	4F#	8d	4a
.	.	.	.	8c	.
I	4AA	4G	4G	8c	4g
.	.	.	.	8A	.
I;	4AA;	4GG;	4D;	4B;	4g;
====	====	====	====	====	====
*-	*-	*-	*-	*-	*-
!!chor2scor: -l 2 -s 0.6 -o %b.pmx
!!!YEC: Copyright 1994, David Huron
!!!YEC: Changes/Additions 2001 by Craig Stuart Sapp
!!!YEN: United States of America
!!!SMA: 371 Bach Chorales, edited by Ludwig Erk, C.F. Peters
!!!PDT: 1850, 1865
